symbols/web/volume_off/materialsymbolsoutlined/volume_off_wght100gradN25fill1_48px.svg

<svg xmlns="http://www.w3.org/2000/svg" height="48" width="48"><path d="m38.25 42.8-6.15-6.15q-.8.5-1.625.9t-1.625.65V37q.55-.15 1.225-.425t1.275-.725l-8.5-8.5v6.35l-6.3-6.3h-6.5v-6.8h6L5.85 10.4l.8-.85L39.05 42Zm-2.3-9.55-.8-.8q1.45-1.75 2.225-3.925.775-2.175.775-4.625 0-4.45-2.575-8.05Q33 12.25 28.85 10.8V9.6q4.6 1.7 7.5 5.6 2.9 3.9 2.9 8.7 0 2.65-.9 5t-2.4 4.35Zm-5.2-5.2-1.9-1.9V17.7q1.45 1.1 2.225 2.775.775 1.675.775 3.525 0 1.05-.275 2.1t-.825 1.95Zm-7.9-7.9-2.9-2.95 2.9-2.9Z"/></svg>

<svg xmlns="http://www.w3.org/2000/svg" height="48" width="48"><path d="M38.25 42.8 32.1 36.65Q31.3 37.15 30.475 37.55Q29.65 37.95 28.85 38.2V37Q29.4 36.85 30.075 36.575Q30.75 36.3 31.35 35.85L22.85 27.35V33.7L16.55 27.4H10.05V20.6H16.05L5.85 10.4L6.65 9.55L39.05 42ZM35.95 33.25 35.15 32.45Q36.6 30.7 37.375 28.525Q38.15 26.35 38.15 23.9Q38.15 19.45 35.575 15.85Q33 12.25 28.85 10.8V9.6Q33.45 11.3 36.35 15.2Q39.25 19.1 39.25 23.9Q39.25 26.55 38.35 28.9Q37.45 31.25 35.95 33.25ZM30.75 28.05 28.85 26.15V17.7Q30.3 18.8 31.075 20.475Q31.85 22.15 31.85 24Q31.85 25.05 31.575 26.1Q31.3 27.15 30.75 28.05ZM22.85 20.15 19.95 17.2 22.85 14.3Z"/></svg>
